static/img/services/github.svg

<svg width="72" height="32" viewBox="0 0 72 32" fill="none" xmlns="http://www.w3.org/2000/svg">
<g clip-path="url(#clip0)">
<path fill-rule="evenodd" clip-rule="evenodd" d="M29.8604 21.9188H29.8287C29.843 21.9188 29.8525 21.9331 29.8668 21.9363C29.8684 21.9363 29.8747 21.9347 29.8763 21.9347L29.8604 21.9188ZM29.8668 21.9363C29.7192 21.9379 29.3478 22.014 28.9558 22.014C27.7179 22.014 27.2893 21.4426 27.2893 20.6967V15.7291H29.8128C29.9557 15.7291 30.0668 15.6021 30.0668 15.4275V12.7294C30.0668 12.5866 29.9398 12.4596 29.8128 12.4596H27.2893V9.11084C27.2893 8.98387 27.21 8.90451 27.0671 8.90451H23.639C23.4962 8.90451 23.4168 8.98387 23.4168 9.11084V12.5549C23.4168 12.5549 21.6869 12.9834 21.5758 12.9992C21.4488 13.031 21.3694 13.1421 21.3694 13.2691V15.4275C21.3694 15.6021 21.4964 15.7291 21.6392 15.7291H23.4009V20.9348C23.4009 24.8074 26.099 25.2041 27.94 25.2041C28.7812 25.2041 29.797 24.9343 29.9557 24.855C30.0509 24.8232 30.0985 24.7121 30.0985 24.601V22.2204C30.0985 22.0632 29.9906 21.9585 29.8668 21.9363ZM67.4748 18.443C67.4748 15.5704 66.3163 15.1894 65.0942 15.3164C64.1419 15.3799 63.3801 15.856 63.3801 15.856V21.4426C63.3801 21.4426 64.1578 21.9823 65.3164 22.014C66.9511 22.0617 67.4748 21.4744 67.4748 18.443ZM71.3315 18.1891C71.3315 23.6329 69.5698 25.1883 66.4908 25.1883C63.888 25.1883 62.4913 23.871 62.4913 23.871C62.4913 23.871 62.4278 24.601 62.3485 24.6963C62.3009 24.7915 62.2215 24.8232 62.1263 24.8232H59.7774C59.6187 24.8232 59.4758 24.6963 59.4758 24.5534L59.5076 6.92063C59.5076 6.77779 59.6345 6.65082 59.7774 6.65082H63.1579C63.3008 6.65082 63.4277 6.77779 63.4277 6.92063V12.904C63.4277 12.904 64.7291 12.0629 66.6337 12.0629L66.6178 12.0311C68.5223 12.0311 71.3315 12.7453 71.3315 18.1891ZM57.4919 12.4596H57.4761H54.159C53.9844 12.4596 53.8892 12.5866 53.8892 12.7612V21.395C53.8892 21.395 53.0163 22.014 51.826 22.014C50.6357 22.014 50.2865 21.4744 50.2865 20.2841V12.7453C50.2865 12.6025 50.1595 12.4755 50.0167 12.4755H46.6203C46.4774 12.4755 46.3505 12.6025 46.3505 12.7453V20.8554C46.3505 24.3471 48.3026 25.22 50.9848 25.22C53.1909 25.22 54.9843 23.9979 54.9843 23.9979C54.9843 23.9979 55.0637 24.6169 55.1113 24.7121C55.143 24.7915 55.2541 24.855 55.3652 24.855H57.4919C57.6665 24.855 57.7618 24.728 57.7618 24.5852L57.7935 12.7294C57.7935 12.5866 57.6665 12.4596 57.4919 12.4596ZM19.8776 12.4438H16.497C16.3542 12.4438 16.2272 12.5866 16.2272 12.7612V24.4106C16.2272 24.728 16.4335 24.8391 16.7033 24.8391H19.7506C20.068 24.8391 20.1474 24.6963 20.1474 24.4106V12.7294V12.7136C20.1474 12.5707 20.0204 12.4438 19.8776 12.4438ZM18.2111 7.07934C16.989 7.07934 16.0209 8.04748 16.0209 9.26955C16.0209 10.4916 16.989 11.4598 18.2111 11.4598C19.4014 11.4598 20.3696 10.4916 20.3696 9.26955C20.3696 8.04748 19.4014 7.07934 18.2111 7.07934ZM44.3825 6.68256H41.0337C40.8908 6.68256 40.7639 6.80953 40.7639 6.95237V13.4436H35.5105V6.95237C35.5105 6.80953 35.3836 6.68256 35.2407 6.68256H31.8602C31.7174 6.68256 31.5904 6.80953 31.5904 6.95237V24.5852C31.5904 24.728 31.7332 24.855 31.8602 24.855H35.2407C35.3836 24.855 35.5105 24.728 35.5105 24.5852V17.0464H40.7639L40.7321 24.5852C40.7321 24.728 40.8591 24.855 41.0019 24.855H44.3825C44.5253 24.855 44.6523 24.728 44.6523 24.5852V6.95237C44.6523 6.80953 44.5253 6.68256 44.3825 6.68256ZM14.4338 14.4911V23.6012C14.4338 23.6646 14.4179 23.7757 14.3386 23.8075C14.3386 23.8075 12.3547 25.22 9.08524 25.22C5.13335 25.22 0.451385 23.9821 0.451385 15.8243C0.451385 7.66657 4.54612 5.98424 8.54562 6.00011C12.0055 6.00011 13.4022 6.77779 13.6244 6.92063C13.6878 6.99999 13.7196 7.06347 13.7196 7.14283L13.053 9.96787C13.053 10.1107 12.9102 10.2853 12.7356 10.2377C12.1642 10.0631 11.3072 9.71394 9.29156 9.71394C6.95852 9.71394 4.45089 10.3805 4.45089 15.6338C4.45089 20.8872 6.83155 21.5061 8.54562 21.5061C10.0058 21.5061 10.5295 21.3315 10.5295 21.3315V17.6812H8.19646C8.02188 17.6812 7.89491 17.5542 7.89491 17.4114V14.4911C7.89491 14.3483 8.02188 14.2213 8.19646 14.2213H14.1322C14.3068 14.2213 14.4338 14.3483 14.4338 14.4911Z" fill="white"/>
</g>
<defs>
<clipPath id="clip0">
<rect width="71" height="32" fill="white" transform="translate(0.451385)"/>
</clipPath>
</defs>
</svg>

<svg width="72" height="32" fill="none" xmlns="http://www.w3.org/2000/svg"><g clip-path="url(#a)"><path fill-rule="evenodd" clip-rule="evenodd" d="M29.86 21.919h-.031c.014 0 .023.014.038.017l.01-.001-.017-.016Zm.007.017c-.148.002-.52.078-.911.078-1.238 0-1.667-.571-1.667-1.317v-4.968h2.524c.143 0 .254-.127.254-.301v-2.699c0-.142-.127-.27-.254-.27h-2.524V9.112c0-.127-.079-.206-.222-.206H23.64c-.143 0-.222.079-.222.206v3.444s-1.73.428-1.841.444a.272.272 0 0 0-.207.27v2.159c0 .174.127.301.27.301h1.762v5.206c0 3.872 2.698 4.27 4.539 4.27.841 0 1.857-.27 2.016-.35.095-.032.143-.143.143-.254v-2.38a.28.28 0 0 0-.232-.285Zm37.608-3.493c0-2.873-1.159-3.254-2.38-3.127a4.117 4.117 0 0 0-1.715.54v5.587s.778.54 1.936.571c1.635.048 2.159-.54 2.159-3.571Zm3.857-.254c0 5.444-1.762 7-4.841 7-2.603 0-4-1.318-4-1.318s-.063.73-.142.825c-.048.095-.127.127-.223.127h-2.349c-.158 0-.301-.127-.301-.27l.032-17.632c0-.143.127-.27.27-.27h3.38c.143 0 .27.127.27.27v5.983s1.301-.841 3.206-.841l-.016-.032c1.904 0 4.714.714 4.714 6.158Zm-13.84-5.73h-3.333c-.175 0-.27.128-.27.302v8.634s-.873.619-2.063.619c-1.19 0-1.54-.54-1.54-1.73v-7.539a.278.278 0 0 0-.27-.27H46.62a.278.278 0 0 0-.27.27v8.11c0 3.492 1.953 4.365 4.635 4.365 2.206 0 4-1.222 4-1.222s.079.619.126.714c.032.08.143.143.254.143h2.127c.175 0 .27-.127.27-.27l.032-11.856c0-.142-.127-.27-.302-.27Zm-37.614-.015h-3.381c-.143 0-.27.143-.27.317v11.65c0 .317.206.428.476.428h3.048c.317 0 .396-.143.396-.428V12.714a.278.278 0 0 0-.27-.27ZM18.21 7.079c-1.222 0-2.19.968-2.19 2.19 0 1.223.968 2.19 2.19 2.19 1.19 0 2.159-.967 2.159-2.19 0-1.222-.969-2.19-2.159-2.19Zm26.172-.396h-3.35a.278.278 0 0 0-.27.27v6.49h-5.252v-6.49a.278.278 0 0 0-.27-.27h-3.38a.278.278 0 0 0-.27.27v17.632c0 .143.142.27.27.27h3.38c.143 0 .27-.127.27-.27v-7.539h5.253l-.032 7.54c0 .142.127.269.27.269h3.38c.143 0 .27-.127.27-.27V6.952a.278.278 0 0 0-.27-.27Zm-29.95 7.808v9.11c0 .064-.015.175-.094.207 0 0-1.984 1.412-5.254 1.412-3.952 0-8.634-1.238-8.634-9.396 0-8.157 4.095-9.84 8.095-9.824 3.46 0 4.856.778 5.078.92.064.08.096.143.096.223l-.667 2.825c0 .143-.143.317-.317.27-.572-.175-1.429-.524-3.444-.524-2.333 0-4.841.666-4.841 5.92 0 5.253 2.38 5.872 4.095 5.872 1.46 0 1.984-.175 1.984-.175v-3.65H8.196c-.174 0-.301-.127-.301-.27v-2.92c0-.143.127-.27.301-.27h5.936c.175 0 .302.127.302.27Z" fill="#fff"/></g><defs><clipPath id="a"><path fill="#fff" transform="translate(.451)" d="M0 0h71v32H0z"/></clipPath></defs></svg>
